!!! OTL: Berkowitz629
!!! Chapter: 1
!!! Section: V
!!! Page: 160
!!! Mode: 
!!! Encoder: AR
**kern
*staff1
=1-
!!pagebreak:original
*clefF4
*k[]
*C:
*M4/4
8G\L
8G\
8G\
8G\J
8B-\L
8G-\J
4G-\
=2
8E\L
8G#\
8C\
8Bn\J
8A\L
8d\J
4E-\
=3
8F\L
8F\
8F\
8F\J
4D-\
4A\
=4
8c\L
8c\
8c\
8A-\J
8G-\L
8B-\J
4Dn\
=5
!!linebreak:original
8c#\L
8Bn\
8E\
8F\J
4Gn\
4E-\
=6
8D-\L
8D-\
8F\
8F\J
8E-\L
8d-\J
4A\
=7
8B\L
8C\
8G#\
8En\J
4F#\
4A#\
=8
1Gn
==
*-
